X: 1967
T: Yaprak Nasıl Düşerse
C: Gönül Paçacı
O: Turkey
F: http://compmusic.upf.edu/node/140
N: mustear--sarki--aksak--yaprak_nasil--gonul_pacaci
N: makam= mustear
N: form= sarki
N: usul= aksak = 9/8
M: 9/8
L: 1/16
K: C _1/4B _1/4e ^f 
Q: 1/4=144
%%MIDI tuningsystem comma53
B2d2 ^c2d2 c2(3dcd B6 | d2 g2=f2 e2d2 d^cc4z2  | \
w:  Yap *  *  *  rak  |  na sıl  *  dü şer *  *  se   | 
^c2d4c2 d2dc d4 e2 | 
w:  a kıp  *  kay *  *  bo  | 
=f2 ed^c3de8-e2  | d2g2 =f2e2 d2dc B6 | \
w:  lan  *  *  su *  ya   |  a kıp  *  *  kay *  *  bo  | 
B4^c4d8-d2  | ^c2c6 c4 c4 Bc | 
w:  lan  su ya    |  SAZ  | 
d6 ^c2d2 dcd6  | ^c2c6 c4 c4 Bc | d6 ^c2=f3ed6  | \
w:   |   |   | 
z2d6 e2f2 g6 | 
w:  Ruh  öy *  le   | 
a2 g2g2 f2f3ed6  | z4 =f2fe g2e2 e4 d2 | \
w:  yol *  la *  nır   |  u ya *  nıl *  maz   | 
z2 =f2e2 d2d2 c2B4d2  | 
w:  bir  *  *  uy *  *  ku  | 
c6B2 B3^A G6 | z2 =f2e2 d2d2 c2c4cB  | B18 | \
w:  ya    |  uy *  *  *  *  *  ku  |  ya    | 
^c2 c6c4c4Bc  | 
w:  SAZ  | 
d6^c2 d2dc d6 | ^c2 c6c4c4Bc  | d6^c2 =f3e d6 | \
w:   |   |   | 
z2 d6e2 f2g6  | 
w:  Ruh  öy *  le   | 
a2g2 g2f2 f3e d6 | z4=f2 feg2 e2e4d2  | \
w:  yol *  la *  nır   |  u ya *  nıl *  maz   | 
z2=f2 e2d2 d2c2 B4 d2 | 
w:  bir  *  *  uy *  *  ku  | 
c6 B2B3^AG6  | z2=f2 e2d2 d2c2 c4 cB | B18  | \
w:  ya    |  uy *  *  *  *  *  ku  |  ya    | 
b2b6 b4 b4 ^ab | 
w:  SAZ  | 
c'6 b2c'2 c'bc'6  | b2b6 b4 b4 ^ab | \
w:   |   | 
c'6 b2b2 b^ab6  | g6b2 b8-b2 | 
w:   |  Duy *  maz   | 
b2 c'4 baa8z2  | g3f g2e2 d4 z6 | d3^c_7/8B2 BAB4z6  | \
w:  o an *  *  da   |  taş  *  gi *  bi   |  kal *  bin *  *  de   | 
A2_7/8B4AG G8-G2 | 
w:  bir  *  sı *  zı    | 
z2 d6d3^c=B4c2  | d6^c2 =f3e d6 | ^c2 c6c4c4Bc  | \
w:  bir  *  *  *  sı  |  zı   SAZ  |  SAZ  | 
d6^c2 d2dc d6 | 
w:   | 
^c2 c6c4c4Bc  | d6^c2 =f3e d6 | z2 d6e2 f2g6  | \
w:   |   |  Fark_ et *  mez   | 
a2g2 g2f2 f3e d6 | 
w:  an *  ne  *  top *  rak   | 
z4=ff2eg2 e2e4d2  | d2=f2 e2d2 d2c2 B4 dc | \
w:  ö lüm  *  ma *  *  ce  |  *  ra *  *  *  *  *  mı  | 
c6 B2B3^AG6  | 
w:  zı    | 
z2=f2 e2d2 dcc2 c4 cB | B18  | ^c2c6 c4 c4 Bc | \
w:  ma *  ce ra *  *  *  mı  |  zı    |  SAZ  | 
d6 ^c2d2 dcd6  | 
w:   | 
^c2c6 c4 c4 Bc | d6 ^c2=f3ed6  | z2d6 e2f2 g6 | \
w:   |   |  Fark_ et *  mez   | 
a2 g2g2 f2f3ed6  | 
w:  an *  ne  *  top *  rak   | 
z4 =ff2e g2e2 e4 d2 | d2 =f2e2 d2d2 c2B4dc  | \
w:  ö lüm  *  ma *  *  ce  |  *  ra *  *  *  *  *  mı  | 
c6B2 B3^A G6 | 
w:  zı    | 
z2 =f2e2 d2dc c2c4cB  | B18 | |


